img/svg/editors/arrow-circle.svg

<svg width="20" height="15" viewBox="0 0 20 15" fill="none" xmlns="http://www.w3.org/2000/svg">
<path d="M14.8617 14.5149L12.8071 10.1235L14.187 9.50444L15.1366 11.5409L15.2275 11.2913C15.8944 9.459 15.8212 7.67247 15.0094 5.93156C14.1976 4.19067 12.876 2.98628 11.0438 2.31931C9.21139 1.65237 7.42413 1.72524 5.68313 2.53708C3.94235 3.34891 2.73871 4.6708 2.0718 6.50302L0.662262 5.98999C1.06567 4.88168 1.65308 3.91917 2.42481 3.1033C3.19658 2.28734 4.07406 1.65003 5.05661 1.19186C6.03916 0.733744 7.0914 0.471118 8.21254 0.404432C9.33353 0.337737 10.4486 0.506402 11.5568 0.909773C12.6649 1.31311 13.6269 1.90049 14.4426 2.67199C15.2585 3.44368 15.8958 4.32134 16.354 5.30379C16.8122 6.28631 17.0747 7.33862 17.1415 8.45972C17.2082 9.58078 17.0404 10.696 16.637 11.8043L16.5462 12.0539L18.6064 11.0932L19.2656 12.4545L14.8617 14.5149Z" fill="white"/>
</svg>

<svg width="20" height="15" fill="none" xmlns="http://www.w3.org/2000/svg"><path d="M14.862 14.515l-2.055-4.392 1.38-.619.95 2.037.09-.25c.667-1.832.594-3.619-.218-5.36-.811-1.74-2.133-2.945-3.965-3.612-1.833-.667-3.62-.594-5.36.218-1.742.812-2.945 2.134-3.612 3.966L.662 5.99a8.256 8.256 0 011.763-2.887 8.609 8.609 0 012.632-1.911A8.609 8.609 0 018.213.404a8.257 8.257 0 013.344.506c1.108.403 2.07.99 2.886 1.762a8.61 8.61 0 011.911 2.632 8.61 8.61 0 01.788 3.156 8.257 8.257 0 01-.505 3.344l-.09.25 2.06-.96.659 1.36-4.404 2.06z" fill="#fff"/></svg>
